var length = 200to cube [rt 90repeat 4 [ fd length rt 90 ] lt 45 fd length rt 45repeat 4 [ fd length rt 90 ]fd length rt 135 fd lengthlt 45 fd lengthlt 135 fd lengthlt 135 fd lengthlt 45 fd lengthrt 135fd length]cube