to first [repeat 9[fd 24 rt 10]]to second [repeat 9[fd 12 lt 10]]to petal [repeat 2 [first second rt 180]]to sunflower [repeat 18 [petal rt 20]]bg orangepc magentastr 3sunflower rt 1bg black